!!!COA:	Josquin des Prez
!!!CDT:	~1450-1521/08/27
!!!COM: Mouton
!!!OTL@@LAT: Ave Maria
!!!AGN:	Motet
!!!SCT:	NJE 23.5
!!!SCA:	New Josquin Edition 23.5
!!!voices:	4
**kern	**kern	**kern	**kern
*staff4	*staff3	*staff2	*staff1
*Ivox	*Ivox	*Ivox	*Ivox
*I"Bassus	*I"Tenor	*I"Altus	*I"Superius
*I'B	*I'T	*I'A	*I'S
*clefF4	*clefGv2	*clefGv2	*clefG2
*k[]	*k[]	*k[]	*k[]
*M2/1	*M2/1	*M2/1	*M2/1
*met(C|)	*met(C|)	*met(C|)	*met(C|)
=1-	=1-	=1-	=1-
0A	0r	0r	0e
=2	=2	=2	=2
1G	0B	0r	1g
1G	.	.	1g
=3	=3	=3	=3
0F	1c	0A	1.a
.	1d	.	.
.	.	.	4g/
.	.	.	4f/
=4	=4	=4	=4
0E	0e	1B	0g
.	.	1B	.
=5	=5	=5	=5
1r	1A	0c	1.e
1A	1r	.	.
.	.	.	2f/
=6	=6	=6	=6
1G	1.B	0d	1g
1G	.	.	1g
.	2B\	.	.
=7	=7	=7	=7
0F	1c	1r	0a
.	1d	1A	.
=8	=8	=8	=8
1E	1e	1B	1r
1G	1r	1B	1d
=9	=9	=9	=9
2F\	1A	0c	1f
2F\	.	.	.
1E	2G/	.	2.g/
.	2G/	.	.
.	.	.	4a/
=10	=10	=10	=10
1D	1F	1d	2b\
.	.	.	1a
1r	1E	1B	.
.	.	.	[2g/
=11	=11	=11	=11
0r	1r	2c\	2g/]
.	.	2c\	4f/
.	.	.	4e/
.	1D	1d	2.f/
.	.	.	4e/
=12	=12	=12	=12
1r	2.A/	1e	2c/
.	.	.	2.cc\
.	4B\	.	.
[1C	4c\	1r	.
.	4d\	.	4b\
.	[2e\	.	2g/
=13	=13	=13	=13
2C/]	2e\]	0r	2cc\
2D\	2d\	.	2.b\
1F	2c\	.	.
.	.	.	4a/
.	4B\	.	[2a/
.	4A/	.	.
=14	=14	=14	=14
1E	1B	1r	2a/]
.	.	.	2g#i/
1D	2r	[1f	1a
.	2A/	.	.
=15	=15	=15	=15
0r	2B\	2f\]	2r
.	2c\	2e\	2g/
.	1A	1c	2a/
.	.	.	[2cc\
=16	=16	=16	=16
1r	1.G	1d	2cc\]
.	.	.	2b\
[1C	.	1e	1cc
.	2A/	.	.
=17	=17	=17	=17
2C/]	2c\	0r	0r
2D\	2.B\	.	.
1F	.	.	.
.	4A/	.	.
.	[2d\	.	.
=18	=18	=18	=18
1E	2d\]	1r	2.g/
.	2c\	.	.
.	.	.	4a/
1D	2d\	[1f	2b\
.	2A/	.	[2a/
=19	=19	=19	=19
1A	2.c\	2f\]	2a/]
.	.	2e\	4g/
.	4d\	.	4f/
2A\	2e\	1c	2.e/
2A\	2c\	.	.
.	.	.	4f/
=20	=20	=20	=20
2G\	2B\	1d	2g/
2F\	2A/	.	1a
1E	1B	1e	.
.	.	.	2g#/
=21	=21	=21	=21
1r	2r	1A	1a
.	2c\	.	.
1F	1d	2A/	2r
.	.	2A/	2a/
=22	=22	=22	=22
1E	1e	2B\	1g
.	.	2c\	.
1D	2A/	1d	1f
.	2B\	.	.
=23	=23	=23	=23
0A	2.c\	1r	1e
.	4d\	.	.
.	1e	1c	1r
=24	=24	=24	=24
0r	1r	1d	1f
.	[1c	1e	1g
=25	=25	=25	=25
1r	1c]	0A	1.a
1F	1d	.	.
.	.	.	4g/
.	.	.	4f/
=26	=26	=26	=26
1E	1e	0r	2.g/
.	.	.	4a/
1D	2.A/	.	1f
.	4B\	.	.
=27	=27	=27	=27
1A	4c\	1r	2e/
.	4d\	.	.
.	2.c\	.	2.a/
2F\	.	1c	.
.	4B\	.	4g/
2E\	2G/	.	[2g/
=28	=28	=28	=28
1D	1A	1d	2g/]
.	.	.	2f#i/
1C	1r	1e	1g
=29	=29	=29	=29
1D	1.F	1A	2r
.	.	.	2a/
1r	.	2c\	2a/
.	4E/	2d\	2a/
.	4D/	.	.
=30	=30	=30	=30
0r	2.A/	1e	1.cc
.	4G/	.	.
.	2A/	1f	.
.	2B\	.	4b\
.	.	.	4a/
=31	=31	=31	=31
0C	2.c\	1e	1g
.	4B\	.	.
.	2G/	1r	1e
.	[2A/	.	.
=32	=32	=32	=32
1D	4A/]	0r	1.f
.	4G/	.	.
.	2B\	.	.
[1F	1A	.	.
.	.	.	2e/
=33	=33	=33	=33
2F\]	1r	0f	2d/
2E\	.	.	1c
1D	1F	.	.
.	.	.	2B/
=34	=34	=34	=34
0C	1.G	1e	1c
.	.	[1c	1g
.	2E/	.	.
=35	=35	=35	=35
1r	1F	2c\]	1a
.	.	2d\	.
1C	1G	1e	[1cc
=36	=36	=36	=36
1D	2r	0f	2cc\]
.	1d	.	2b\
[1F	.	.	[1a
.	2c\	.	.
=37	=37	=37	=37
2F\]	2d\	1r	2a/]
2E\	2G/	.	2g/
1D	1d	1f	2a/
.	.	.	2b\
=38	=38	=38	=38
1.A	2.c\	1e	1.cc
.	4d\	.	.
.	1e	[1c	.
2G\	.	.	2b\
=39	=39	=39	=39
1F	1A	2c\]	2a/
.	.	2d\	4g/
.	.	.	4f/
1E	1B	1e	1g
=40	=40	=40	=40
1.F	2r	[0Al	1.a
.	1c	.	.
2E\	2c\	.	2g/
=41	=41	=41	=41
2D\	2d\	0A_	2f/
2C/	2e\	.	2e/
2.F\	1c	.	[1f
4E\	.	.	.
=42	=42	=42	=42
2D\	1r	0A_	2f/]
2C/	.	.	2e/
1D	1F	.	1d
=43	=43	=43	=43
[0AAl	2F/	0A_	[0cl
.	2E/	.	.
.	1F	.	.
=44	=44	=44	=44
0AA]	0El	0A]	0c]
==	==	==	==
*-	*-	*-	*-
!!!RDF**kern: l=long note in original notation
!!!RDF**kern: i=editorial accidental
!!!ENC:	Will Watson 13/10/2011
!!!END:	2011/08/08/
!!!EED:	Jesse Rodin
!!!EEV:	2011/10/18/
!!attribution-level@Jos: 4 (questionable)
!!!ONB:	Translated from MusicXML and edited on 2011/10/18/ by Craig Sapp
!!muse2ps: C^@{COA}?\n@{SCT}^v85,85,85,150i2I150c80Q16
